actions/24/media-repeat-album-amarok.svg

<?xml version="1.0" encoding="UTF-8" standalone="no"?>
<svg
   width="24"
   height="24"
   version="1.1"
   id="svg9"
   sodipodi:docname="media-repeat-album-amarok.svg"
   inkscape:version="1.1.2 (0a00cf5339, 2022-02-04)"
   xmlns:inkscape="http://www.inkscape.org/namespaces/inkscape"
   xmlns:sodipodi="http://sodipodi.sourceforge.net/DTD/sodipodi-0.dtd"
   xmlns="http://www.w3.org/2000/svg"
   xmlns:svg="http://www.w3.org/2000/svg">
  <sodipodi:namedview
     id="namedview11"
     pagecolor="#000000"
     bordercolor="#666666"
     borderopacity="1.0"
     inkscape:pageshadow="2"
     inkscape:pageopacity="0"
     inkscape:pagecheckerboard="0"
     showgrid="false"
     inkscape:zoom="28.416667"
     inkscape:cx="11.982405"
     inkscape:cy="11.964809"
     inkscape:window-width="1482"
     inkscape:window-height="967"
     inkscape:window-x="0"
     inkscape:window-y="29"
     inkscape:window-maximized="1"
     inkscape:current-layer="g7" />
  <defs
     id="defs3">
    <style
       id="current-color-scheme"
       type="text/css">
   .ColorScheme-Text { color:#eeeeec; } .ColorScheme-Highlight { color:#367bf0; } .ColorScheme-NeutralText { color:#ffcc44; } .ColorScheme-PositiveText { color:#3db47e; } .ColorScheme-NegativeText { color:#dd4747; }
  </style>
  </defs>
  <g
     transform="translate(4,4)"
     id="g7">
    <path
       style="fill:currentColor"
       class="ColorScheme-Text"
       d="m 5,2.7994514 v 0 V 4 H 3 C 1,4 1,6 1,6 v 6 c 0,0 0,2 2,2 h 10 c 2,0 2,-2 2,-2 V 6 c 0,0 0,-2 -2,-2 h -2 v 2 h 2 v 6 H 3 V 6 H 5 V 7.1635023 L 5.823148,7.382639 v 0 L 8.3286938,5.5034797 v 0 L 8.35573,4.5167975 5.872623,2.6544672 Z M 9,7 v 4 h 1 v -1 h 1 v 1 h 1 V 7 Z m 1,1 h 1 v 1 h -1 z"
       id="path5"
       sodipodi:nodetypes="cccsccssccsccccccccccccccccccccccccccccc" />
  </g>
</svg>

<svg xmlns="http://www.w3.org/2000/svg" width="24" height="24" version="1.1">
 <defs>
  <style id="current-color-scheme" type="text/css">
   .ColorScheme-Text { color:#eeeeec; } .ColorScheme-Highlight { color:#367bf0; } .ColorScheme-NeutralText { color:#ffcc44; } .ColorScheme-PositiveText { color:#3db47e; } .ColorScheme-NegativeText { color:#dd4747; }
  </style>
 </defs>
 <g transform="translate(4,4)">
  <path style="fill:currentColor" class="ColorScheme-Text" d="M 5,2 V 4 H 3 C 1,4 1,6 1,6 V 12 C 1,12 1,14 3,14 H 13 C 15,14 15,12 15,12 V 6 C 15,6 15,4 13,4 H 11 V 6 H 13 V 12 H 3 V 6 H 5 V 8 L 9,5 Z M 9,7 V 11 H 10 V 10 H 11 V 11 H 12 V 7 Z M 10,8 H 11 V 9 H 10 Z"/>
 </g>
</svg>
